X: 199
T: Tripping Down The Stairs
T: Green Hills of Tyrol
R: reel
M: C|
L: 1/8
K:Gmaj
GA|"G"BG~G2 BGAc | BGDC B,CDC | B,G,B,D "C"~E3G |"D" FDEF "G"G2GA|
"G"BG~G2 BGAc | BGDC B,CDC | B,G,B,D "C"ECEG | "D"FDEF "G"G2 :|
|:ga|"G"bg~g2 egde |"D7(Am)" cdBc ABGA |"D" FGEF DECD | "G"B,CA,B, G,A,B,D |
"G"G3B dBGB |"D7(Am)" ABcA "G"BGDC | B,G,B,D "C"~E3G | "D"FD EF "G"G2 :|


